src/images/icon-light.svg

<svg fill="none" height="308" viewBox="0 0 308 308" width="308" xmlns="http://www.w3.org/2000/svg" xmlns:xlink="http://www.w3.org/1999/xlink"><linearGradient id="a" gradientUnits="userSpaceOnUse" x1="285.5" x2="-13.5" y1="225.5" y2="56.5"><stop offset="0" stop-color="#e2e1ff"/><stop offset="1" stop-color="#9c9aed" stop-opacity=".5"/></linearGradient><path clip-rule="evenodd" d="m50.7753 249.899c8.8555 31.932 41.9202 50.639 73.8517 41.784l125.272-34.741c31.932-8.856 50.639-41.92 41.784-73.852l-34.741-125.2722c-8.856-31.9319-41.92-50.63899-73.852-41.7835l-125.2722 34.741c-31.9319 8.8555-50.639 41.9202-41.7835 73.8517zm195.0367-65.608c4.039 14.567-4.494 29.65-19.061 33.689-14.566 4.04-29.65-4.494-33.689-19.06-4.04-14.567 4.494-29.65 19.06-33.689 14.567-4.04 29.65 4.494 33.69 19.06zm-150.8887-40.895c14.5667-4.04 23.0997-19.123 19.0607-33.689-4.04-14.567-19.123-23.1006-33.6895-19.061s-23.1001 19.123-19.0605 33.689c4.0396 14.567 19.1229 23.1 33.6893 19.061z" fill="url(#a)" fill-rule="evenodd"/></svg>

<svg width="308" height="308" viewBox="0 0 308 308" fill="none" xmlns="http://www.w3.org/2000/svg">
<path fill-rule="evenodd" clip-rule="evenodd" d="M50.7753 249.899C59.6308 281.831 92.6955 300.538 124.627 291.683L249.899 256.942C281.831 248.086 300.538 215.022 291.683 183.09L256.942 57.8178C248.086 25.8859 215.022 7.17881 183.09 16.0343L57.8178 50.7753C25.8859 59.6308 7.1788 92.6955 16.0343 124.627L50.7753 249.899ZM245.812 184.291C249.851 198.858 241.318 213.941 226.751 217.98C212.185 222.02 197.101 213.486 193.062 198.92C189.022 184.353 197.556 169.27 212.122 165.231C226.689 161.191 241.772 169.725 245.812 184.291ZM94.9233 143.396C109.49 139.356 118.023 124.273 113.984 109.707C109.944 95.14 94.861 86.6064 80.2945 90.646C65.728 94.6856 57.1944 109.769 61.234 124.335C65.2736 138.902 80.3569 147.435 94.9233 143.396Z" fill="url(#paint0_linear)"/>
<defs>
<linearGradient id="paint0_linear" x1="285.5" y1="225.5" x2="-13.5" y2="56.5" gradientUnits="userSpaceOnUse">
<stop stop-color="#E2E1FF"/>
<stop offset="1" stop-color="#9C9AED" stop-opacity="0.5"/>
</linearGradient>
</defs>
</svg>
